static/assets/images/exchanges/pharaoh.svg

<svg width="344" height="256" viewBox="0 0 344 256" fill="none" xmlns="http://www.w3.org/2000/svg">
<path fill-rule="evenodd" clip-rule="evenodd" d="M98.829 82.6236L117.449 164.677C117.457 164.705 117.446 164.735 117.438 164.763L95.1847 191.39L95.1739 191.476L104.026 255.928H133.868L120.491 45.6796L120.47 45.617L120.425 45.5693L120.363 45.5457L120.297 45.5505C120.266 45.5629 120.239 45.5857 120.222 45.6151L98.8505 82.516C98.829 82.559 98.829 82.5913 98.829 82.6236ZM83.4042 255.928L62.5145 146.711C62.5038 146.681 62.4852 146.666 62.4608 146.646C62.4432 146.629 62.4221 146.616 62.399 146.608C62.3759 146.599 62.3513 146.596 62.3269 146.598C62.3025 146.6 62.2787 146.608 62.2573 146.619L62.23 146.638L62.2028 146.668L47.9049 171.089L47.8862 171.127L47.8791 171.156C47.8754 171.181 47.8769 171.205 47.8834 171.229L62.8908 223.191C62.9007 223.223 62.9007 223.257 62.8908 223.288L46.3998 248.839V248.946L48.3585 255.928H83.4042ZM0.0982782 255.928C-0.0199751 256.09 0.00152966 255.928 0.00152966 255.928H20.7078L13.3534 233.928C13.3432 233.898 13.3245 233.872 13.2997 233.853L13.2398 233.819L13.1714 233.811L13.1054 233.83L13.0524 233.874L0.0982782 255.928ZM244.314 82.6232L225.684 164.677H225.706L225.7 164.722L225.706 164.763L247.948 191.389L247.959 191.409L247.967 191.435L247.969 191.456L247.969 191.475L239.117 255.928H209.272L222.642 45.6793L222.663 45.6131L222.711 45.5634L222.777 45.5408L222.846 45.5502C222.878 45.5626 222.904 45.5854 222.921 45.6148L244.282 82.5157C244.314 82.5587 244.314 82.591 244.314 82.6232ZM259.728 255.928L280.618 146.71C280.627 146.68 280.645 146.653 280.668 146.632C280.692 146.611 280.721 146.597 280.752 146.592C280.783 146.586 280.815 146.589 280.845 146.601L280.889 146.626L280.919 146.656L295.217 171.078C295.232 171.097 295.243 171.119 295.249 171.142V171.218L280.242 223.18L280.235 223.224L280.236 223.25L280.242 223.277L296.733 248.828V248.935L294.771 255.928H259.728ZM343.034 255.928C343.153 256.09 343.131 255.928 343.131 255.928H322.425L329.779 233.928C329.786 233.899 329.801 233.873 329.822 233.852L329.882 233.818L329.95 233.81L330.016 233.83L330.069 233.874L343.034 255.928Z" fill="#D54B4B"/>
<path d="M163.942 255.928H179.178H182.541L190.787 13.4156L186.01 4.20059L183.744 0C179.677 0.15113 175.607 0.218306 171.537 0.201528C167.486 0.217554 163.435 0.150378 159.385 0L157.029 4.369L152.332 13.4156L160.578 255.928H163.942Z" fill="#D54B4B"/>
<path d="M196.623 152.699L186.74 138.331L182.732 255.928H189.42L196.623 152.699Z" fill="#D54B4B"/>
<path d="M156.39 138.327L146.497 152.703L153.705 255.928H160.398L156.39 138.327Z" fill="#D54B4B"/>
</svg>

<svg xmlns="http://www.w3.org/2000/svg" fill="none" viewBox="0 0 344 256"><path fill="#D54B4B" fill-rule="evenodd" d="m98.829 82.624 18.62 82.053c.008.028-.003.058-.011.086L95.185 191.39l-.011.086 8.852 64.452h29.842L120.491 45.68l-.021-.063-.045-.048-.062-.023-.066.005a.15.15 0 0 0-.075.064L98.851 82.516c-.022.043-.022.075-.022.108M83.404 255.928l-20.89-109.217c-.01-.03-.029-.045-.053-.065a.2.2 0 0 0-.062-.038.2.2 0 0 0-.072-.01.2.2 0 0 0-.07.021l-.027.019-.027.03-14.298 24.421-.019.038-.007.029a.2.2 0 0 0 .004.073l15.008 51.962q.015.05 0 .097L46.4 248.839v.107l1.959 6.982zm-83.306 0c-.118.162-.096 0-.096 0h20.706l-7.355-22a.16.16 0 0 0-.053-.075l-.06-.034-.069-.008-.066.019-.053.044zM244.314 82.623l-18.63 82.054h.022l-.006.045.006.041 22.242 26.626.011.02.008.026.002.021v.019l-8.852 64.453h-29.845l13.37-210.249.021-.066.048-.05.066-.022.069.01a.15.15 0 0 1 .075.064l21.361 36.9a.16.16 0 0 1 .032.108m15.414 173.305 20.89-109.218a.17.17 0 0 1 .134-.118.17.17 0 0 1 .093.009l.044.025.03.03 14.298 24.422a.2.2 0 0 1 .032.064v.076l-15.007 51.962-.007.044.001.026.006.027 16.491 25.551v.107l-1.962 6.993zm83.306 0c.119.162.097 0 .097 0h-20.706l7.354-22a.16.16 0 0 1 .043-.076l.06-.034.068-.008.066.02.053.044z" clip-rule="evenodd"/><path fill="#D54B4B" d="M163.942 255.928h18.599l8.246-242.512L186.01 4.2 183.744 0q-6.101.226-12.207.202Q165.46.226 159.385 0l-2.356 4.369-4.697 9.047 8.246 242.512zm32.681-103.229-9.883-14.368-4.008 117.597h6.688zm-40.233-14.372-9.893 14.376 7.208 103.225h6.693z"/></svg>
